svgs/sharp-thin/sd-cards.svg

<svg xmlns="http://www.w3.org/2000/svg" viewBox="0 0 448 512"><!--! Font Awesome Pro 6.6.0 by @fontawesome - https://fontawesome.com License - https://fontawesome.com/license (Commercial License) Copyright 2024 Fonticons, Inc. --><path d="M432 416l0-400L214.6 16 96 134.6 96 416l336 0zM98.7 109.3L208 0 432 0l16 0 0 16 0 400 0 16-16 0L96 432l-16 0 0-16 0-288 18.7-18.7s0 0 0 0zM248 72l0 8 0 64 0 8-16 0 0-8 0-64 0-8 16 0zm64 0l0 8 0 64 0 8-16 0 0-8 0-64 0-8 16 0zm64 0l0 8 0 64 0 8-16 0 0-8 0-64 0-8 16 0zM0 208l48-48 0 22.6-32 32L16 496l336 0 0-32 16 0 0 32 0 16-16 0L16 512 0 512l0-16L0 208z"/></svg>

<svg xmlns="http://www.w3.org/2000/svg" viewBox="0 0 448 512"><!--! Font Awesome Pro 6.5.2 by @fontawesome - https://fontawesome.com License - https://fontawesome.com/license (Commercial License) Copyright 2024 Fonticons, Inc. --><path d="M432 416V16H214.6L96 134.6V416H432zM98.7 109.3L208 0H432h16V16 416v16H432 96 80V416 128l18.7-18.7 0 0zM248 72v8 64 8H232v-8V80 72h16zm64 0v8 64 8H296v-8V80 72h16zm64 0v8 64 8H360v-8V80 72h16zM0 208l48-48v22.6l-32 32V496H352V464h16v32 16H352 16 0V496 208z"/></svg>
